docs/public/favicon.svg

<svg viewBox="0 0 48 48" xmlns="http://www.w3.org/2000/svg" xml:space="preserve" style="fill-rule:evenodd;clip-rule:evenodd;stroke-linejoin:round;stroke-miterlimit:2">
  <path d="M.093-.099c.008-.04.02-.068.037-.084.017-.015.043-.023.08-.023.037 0 .062.005.075.015.013.01.019.027.019.05a.3.3 0 0 1-.056.156L.16.151.08.122l.056-.144C.105-.027.09-.044.09-.072l.003-.027Zm-.247.051h.213c.008.025.021.042.038.049l-.251-.049Zm.226-.097A.255.255 0 0 0 .063-.1l-.222-.045h.231Z" style="fill:#991b1b;fill-rule:nonzero" transform="translate(17.05 26.637) scale(95.86452)"/>
</svg>

<svg xmlns="http://www.w3.org/2000/svg" version="1.1" xmlns:xlink="http://www.w3.org/1999/xlink" xmlns:svgjs="http://svgjs.com/svgjs" width="1000" height="1000"><rect width="1000" height="1000" rx="200" ry="200" fill="#94a3b8"></rect><g transform="matrix(1,0,0,1,0,0)"><svg xmlns="http://www.w3.org/2000/svg" version="1.1" xmlns:xlink="http://www.w3.org/1999/xlink" xmlns:svgjs="http://svgjs.com/svgjs" width="100%" height="100%"><svg width="100%" height="100%" viewBox="0 0 512 512" version="1.1" xmlns="http://www.w3.org/2000/svg" xmlns:xlink="http://www.w3.org/1999/xlink" xml:space="preserve" xmlns:serif="http://www.serif.com/" style="fill-rule:evenodd;clip-rule:evenodd;stroke-linejoin:round;stroke-miterlimit:2;">
    <g transform="matrix(3.35392,0,0,3.35392,-169.865,-502.63)">
        <g transform="matrix(288,0,0,288,106.095,234.112)">
            <path d="M0.093,-0.099C0.101,-0.139 0.113,-0.167 0.13,-0.183C0.147,-0.198 0.173,-0.206 0.21,-0.206C0.247,-0.206 0.272,-0.201 0.285,-0.191C0.298,-0.181 0.304,-0.164 0.304,-0.141C0.304,-0.095 0.285,-0.043 0.248,0.015L0.16,0.151L0.08,0.122L0.136,-0.022C0.105,-0.027 0.09,-0.044 0.09,-0.072C0.09,-0.08 0.091,-0.089 0.093,-0.099ZM-0.154,-0.048L0.059,-0.048C0.067,-0.023 0.08,-0.006 0.097,0.001L-0.154,-0.048ZM0.072,-0.145C0.068,-0.132 0.065,-0.117 0.063,-0.1L-0.159,-0.145L0.072,-0.145Z" style="fill:rgb(153,27,27);fill-rule:nonzero;"></path>
        </g>
    </g>
</svg></svg></g></svg>
